app/assets/images/country-4x3/pg.svg

<?xml version="1.0" encoding="UTF-8" standalone="no"?>
<!-- Created with Sodipodi ("http://www.sodipodi.com/") -->
<svg id="svg548" xmlns:rdf="http://www.w3.org/1999/02/22-rdf-syntax-ns#" xmlns="http://www.w3.org/2000/svg" height="480" width="640" version="1.1" xmlns:cc="http://creativecommons.org/ns#" xmlns:dc="http://purl.org/dc/elements/1.1/">
 <metadata id="metadata3645">
  <rdf:RDF>
   <cc:Work rdf:about="">
    <dc:format>image/svg+xml</dc:format>
    <dc:type rdf:resource="http://purl.org/dc/dcmitype/StillImage"/>
   </cc:Work>
  </rdf:RDF>
 </metadata>
 <g id="flag" transform="matrix(.94087 0 0 .9375 80.178 0)">
  <g id="g575" fill-rule="evenodd" transform="matrix(1.0321 0 0 1.0321 -84 -.00041285)">
   <path id="path572" d="m0.51426 0.00046797-0.51426 496.06h659.05l-658.54-496.06z"/>
   <path id="path574" d="m0.51426 0.00046797-0.51426 496.06h659.05l-658.54-496.06z" transform="matrix(-1 0 0 -1 659.05 496.06)" fill="#f00"/>
  </g>
  <g id="g578" transform="matrix(2.3594 0 0 2.3594 -84 -.00042860)">
   <path id="selection_to_path" d="m178 54l-3.84-0.2c-1.18-2.78-4.513-3.8233-6.563-2.6533-1.86 0.16-11.6-0.147-11.6-0.147l7.12 3.12c1.76 4.76 7.88 5.88 7.88 5.88-0.543 8.7748-8.881-1.1324-15.881 3.8676-5 3-5.059 6.5828-7.761 12.371-0.84 1.609-4.36 5.761-4.36 5.761l5.88-0.5-1.88 2.5 7-1s-0.94 0.7848-1.5 1.38c1.037 0.2028 8-1.63 8-1.63l-0.5 2.25c3.57-1.43 8-2.88 8-2.88s1.57 1.31 3 1.88l1-4 4 1 1-4c6 8 8 16 19 18l-1-4c3.06 1.31 8.74 4.09 8.74 4.09l0.86-1.83c4.77 3.42 8.73 3.36 11.4 3.74 0 0-1.99-4.98-2-5 0.13 0.05 1.99 1.01 2 1 0 0-3-8-3-8s3 1 3 1l-4-6 1.5-1-0.5-3c6 2 14 5 15 12 1 11-11 14-19 13 6 5 17 3 22-2 2-2 3-5 4-8 1 3 3 7 3 11-1 9-13 12-21 13 9 5 25-1 26-14 0-11-7-16-10-21-0.45-1.82-1-5.38-1-5.38 0.388 0.1144 3 1.39 3 1.39s-1.77-3.31-2-4.01c0 0-3.12-8.5-4.25-10.38 0.186-0.1052 2.25 0.35 2.25 0.35l-8.19-10.27s1.976-0.1796 2.32-0.24c0 0-9.52-7.51-12.13-8.46 0 0 3-1 3-1-6-3-13-1-19 3l1-3-1.83 0.17v-3.43s1.83-2.74 1.83-2.74-3-1-3-1l2-5s-3 1-3 1l1-5s-2.24 1.04-3.6 0.89c0.05 0.11 1.59-3.42 1.59-3.42-0.95-1.49 0.01-4.47 0.01-4.47-7 1-8 2-12 8-6 11-4 16-3 27z" stroke="#fc0" stroke-width="1.0648" fill="#fc0"/>
   <path id="path566" d="m215.78 70.438c0.521 0.8594 6.197 3.5937 10.468 6.0156-1.146-4.6093-9.479-5.625-10.468-6.0156z" fill-rule="evenodd" stroke="#f00" stroke-width="1.0648pt" fill="#f00"/>
   <polygon id="polygon567" d="m 78.293953,180.39726 -6.36014,-4.05722 -8.536623,4.08826 1.893261,-7.3026 -6.526133,-6.85547 7.530239,-0.45603 4.503251,-8.32518 2.760683,7.02076 9.309295,1.71023 -5.824042,4.7951 z" fill-rule="evenodd" points="78.294 180.4 71.934 176.34 63.397 180.43 65.29 173.13 58.764 166.27 66.295 165.81 70.798 157.49 73.558 164.51 82.868 166.22 77.044 171.02" stroke-width="1pt" fill="#fff"/>
   <polygon id="polygon568" d="m 94.616715,144.7085 -2.950513,-1.41206 -2.835909,1.63004 0.431187,-3.24245 -2.426609,-2.1934 3.217001,-0.59189 1.336183,-2.98564 1.557028,2.87665 3.252415,0.34817 -2.254704,2.36975 z" fill-rule="evenodd" points="94.617 144.71 91.666 143.3 88.83 144.93 89.262 141.68 86.835 139.49 90.052 138.9 91.388 135.91 92.945 138.79 96.198 139.14 93.943 141.51" stroke-width="1pt" fill="#fff"/>
   <polygon id="polygon569" d="m 109.00288,124.2359 -6.47446,-3.15579 -6.270134,3.54444 1.000618,-7.13277 -5.308541,-4.86797 7.092876,-1.2525 2.989281,-6.553 3.38302,6.35868 7.15601,0.81798 -5.00205,5.18238 z" fill-rule="evenodd" points="109 124.24 102.53 121.08 96.258 124.62 97.259 117.49 91.95 112.62 99.043 111.37 102.03 104.82 105.42 111.18 112.57 112 107.57 117.18" stroke-width="1pt" fill="#fff"/>
   <polygon id="polygon570" d="m 79.400574,95.740189 -7.621278,-3.819012 -7.46663,4.11317 1.276992,-8.428405 -6.219173,-5.830148 8.410501,-1.390029 3.62297,-7.7164 3.920984,7.56932 8.458292,1.061151 -5.9872,6.068126 z" fill-rule="evenodd" points="79.401 95.74 71.779 91.921 64.313 96.034 65.59 87.606 59.37 81.776 67.781 80.386 71.404 72.669 75.325 80.239 83.783 81.3 77.796 87.368" stroke-width="1pt" fill="#fff"/>
   <polygon id="polygon571" d="m 50.904899,125.3425 -7.686314,-4.5633 -7.664737,4.66628 1.964754,-8.72025 -6.806433,-5.84764 8.900598,-0.82612 3.45813,-8.28032 3.536119,8.20969 8.943675,0.73012 -6.715157,5.89998 z" fill-rule="evenodd" transform="translate(1.1066 -.000015259)" points="50.905 125.34 43.219 120.78 35.554 125.44 37.519 116.72 30.712 110.88 39.613 110.05 43.071 101.77 46.607 109.98 55.551 110.71 48.836 116.61" stroke-width="1pt" fill="#fff"/>
  </g>
 </g>
</svg>

<?xml version="1.0" encoding="UTF-8"?>
<svg xmlns="http://www.w3.org/2000/svg" xmlns:xlink="http://www.w3.org/1999/xlink" width="480pt" height="360pt" viewBox="0 0 480 360" version="1.1">
<g id="surface1">
<path style=" stroke:none;fill-rule:evenodd;fill:rgb(0%,0%,0%);fill-opacity:1;" d="M 1.234375 0 L 0.859375 359.988281 L 480.847656 359.988281 L 1.230469 0 Z M 1.234375 0 "/>
<path style=" stroke:none;fill-rule:evenodd;fill:rgb(100%,0%,0%);fill-opacity:1;" d="M 480.472656 359.988281 L 480.847656 0 L 0.859375 0 L 480.476562 359.988281 Z M 480.472656 359.988281 "/>
<path style="fill-rule:nonzero;fill:rgb(100%,80%,0%);fill-opacity:1;stroke-width:1.0648;stroke-linecap:butt;stroke-linejoin:miter;stroke:rgb(100%,80%,0%);stroke-opacity:1;stroke-miterlimit:4;" d="M 178.00061 53.999315 L 174.159858 53.79917 C 172.979712 51.020686 169.648089 49.977577 167.597498 51.147837 C 165.736951 51.305598 155.997817 50.999494 155.997817 50.999494 L 163.11623 54.119402 C 164.87589 58.8805 170.997162 59.998957 170.997162 59.998957 C 170.45284 68.774729 162.116743 58.866372 155.115641 63.867643 C 150.115859 66.867464 150.057204 70.451238 147.354366 76.238962 C 146.514421 77.847186 142.995101 81.99843 142.995101 81.99843 L 148.874712 81.499245 L 146.995395 83.99988 L 153.994151 82.999155 C 153.994151 82.999155 153.055665 83.783253 152.49492 84.378979 C 153.531947 84.581478 160.495509 82.749562 160.495509 82.749562 L 159.995765 84.998251 C 163.564357 83.56898 167.994008 82.118517 167.994008 82.118517 C 167.994008 82.118517 169.565971 83.430056 170.994816 83.99988 L 171.994303 79.999334 L 175.994597 81.000059 L 176.994084 76.999513 C 182.995699 84.998251 184.994673 92.999343 195.996069 94.998439 L 194.994236 91.000248 C 198.056045 92.309432 203.733882 95.09027 203.733882 95.09027 L 204.594943 93.258355 C 209.364795 96.679658 213.325204 96.618437 215.995195 96.99989 C 215.995195 96.99989 214.005606 92.01981 213.993875 91.998618 C 214.125263 92.05042 215.98581 93.008762 215.995195 92.999343 C 215.995195 92.999343 212.994388 84.998251 212.994388 84.998251 C 212.994388 84.998251 215.995195 85.998976 215.995195 85.998976 L 211.994901 79.999334 L 213.494131 78.998609 L 212.994388 75.998788 C 218.996003 78.000238 226.994245 81.000059 227.996079 88.000427 C 228.995566 98.998985 216.994682 101.998807 208.994093 101.000436 C 214.995708 105.999353 225.994758 104.000257 230.99454 98.998985 C 232.99586 96.99989 233.995347 94.000069 234.994834 91.000248 C 235.994321 94.000069 237.995642 97.99826 237.995642 101.998807 C 236.996154 110.99827 224.995271 114.000445 216.994682 114.998816 C 225.994758 120.000087 241.995936 114.000445 242.995423 101.000436 C 242.995423 89.999522 235.994321 84.998251 232.99586 79.999334 C 232.545387 78.179191 231.994027 74.618964 231.994027 74.618964 C 232.383498 74.734342 234.994834 76.008206 234.994834 76.008206 C 234.994834 76.008206 233.225789 72.699926 232.99586 71.998241 C 232.99586 71.998241 229.875396 63.500318 228.744521 61.618955 C 228.929872 61.512996 230.99454 61.969797 230.99454 61.969797 L 222.803907 51.698824 C 222.803907 51.698824 224.781766 51.519871 225.124313 51.45865 C 225.124313 51.45865 215.605724 43.949679 212.994388 42.998402 C 212.994388 42.998402 215.995195 42.000031 215.995195 42.000031 C 209.995927 39.00021 202.994825 40.999306 196.995556 44.999852 L 197.995043 42.000031 L 196.164997 42.169566 L 196.164997 38.738844 C 196.164997 38.738844 197.995043 36.000389 197.995043 36.000389 C 197.995043 36.000389 194.994236 34.999664 194.994236 34.999664 L 196.995556 29.998392 C 196.995556 29.998392 193.994749 30.999117 193.994749 30.999117 L 194.994236 26.0002 C 194.994236 26.0002 192.755948 27.0386 191.395144 26.890257 C 191.444415 26.998571 192.985877 23.468954 192.985877 23.468954 C 192.03566 21.978462 192.995262 18.999833 192.995262 18.999833 C 185.99416 19.998204 184.994673 20.998929 180.994379 26.998571 C 174.99511 37.999485 176.994084 42.998402 177.995917 53.999315 Z M 178.00061 53.999315 " transform="matrix(1.664917,0,0,1.658953,0.85869,-0.000301359)"/>
<path style="fill-rule:evenodd;fill:rgb(100%,0%,0%);fill-opacity:1;stroke-width:1.331;stroke-linecap:butt;stroke-linejoin:miter;stroke:rgb(100%,0%,0%);stroke-opacity:1;stroke-miterlimit:4;" d="M 215.779344 70.43711 C 216.300203 71.296556 221.97804 74.032657 226.248149 76.453235 C 225.100851 71.845189 216.769446 70.827982 215.779344 70.43711 Z M 215.779344 70.43711 " transform="matrix(1.664917,0,0,1.658953,0.85869,-0.000301359)"/>
<path style=" stroke:none;fill-rule:evenodd;fill:rgb(100%,100%,100%);fill-opacity:1;" d="M 131.210938 299.273438 L 120.621094 292.539062 L 106.410156 299.324219 L 109.5625 287.214844 L 98.695312 275.832031 L 111.234375 275.070312 L 118.730469 261.269531 L 123.328125 272.914062 L 138.828125 275.75 L 129.128906 283.714844 Z M 131.210938 299.273438 "/>
<path style=" stroke:none;fill-rule:evenodd;fill:rgb(100%,100%,100%);fill-opacity:1;" d="M 158.386719 240.066406 L 153.476562 237.726562 L 148.753906 240.433594 L 149.472656 235.039062 L 145.433594 231.40625 L 150.789062 230.429688 L 153.011719 225.46875 L 155.605469 230.246094 L 161.019531 230.828125 L 157.265625 234.757812 Z M 158.386719 240.066406 "/>
<path style=" stroke:none;fill-rule:evenodd;fill:rgb(100%,100%,100%);fill-opacity:1;" d="M 182.335938 206.109375 L 171.5625 200.867188 L 161.121094 206.738281 L 162.785156 194.910156 L 153.949219 186.832031 L 165.757812 184.757812 L 170.730469 173.890625 L 176.375 184.441406 L 188.277344 185.800781 L 179.953125 194.394531 Z M 182.335938 206.109375 "/>
<path style=" stroke:none;fill-rule:evenodd;fill:rgb(100%,100%,100%);fill-opacity:1;" d="M 133.054688 158.828125 L 120.363281 152.492188 L 107.933594 159.316406 L 110.0625 145.332031 L 99.703125 135.664062 L 113.707031 133.355469 L 119.742188 120.554688 L 126.269531 133.113281 L 140.351562 134.871094 L 130.382812 144.9375 Z M 133.054688 158.828125 "/>
<path style=" stroke:none;fill-rule:evenodd;fill:rgb(100%,100%,100%);fill-opacity:1;" d="M 87.453125 207.933594 L 74.65625 200.367188 L 61.894531 208.097656 L 65.167969 193.632812 L 53.835938 183.945312 L 68.652344 182.566406 L 74.410156 168.832031 L 80.296875 182.453125 L 95.1875 183.664062 L 84.007812 193.449219 Z M 87.453125 207.933594 "/>
</g>
</svg>
